X: 121
T: Missa Puer natus est nobis / Agnus Dei
N: Derived from Rue1025e-Missa_Puer_natus_est_nobis-Agnus.krn
C: Pierre de la Rue
%%abc-version 2.0
%%abcx-abcm2ps-target-version 5.9.1 (29 Sep 2008)
%%abc-creator hum2abc beta
%%abcx-conversion-date 2019/02/17 08:01:14
%%abc-edited-by Jesse Rodin
%%abc-edited-by Chris Gage 05-11-2013
%%abcx-initial-encoding-date 2013/08/01/
%%humdrum-veritas 414272374
%%humdrum-veritas-data 3287677375
%%linebreak <none>
%%barnumbers 0
L: 1/4
M: 3/1
Q: 1/2=120
%%staves [1 2 3 4]
V: 1 clef=treble
V: 2 clef=treble-8
V: 3 clef=treble-8
V: 4 clef=bass
K: F
[V:1] G12- | 
[V:2] G8G4 | 
[V:3] G12- | 
[V:4] G,8D4 | 
[V:1] G4d8 | 
[V:2] d4d4z4 | 
[V:3] G8d4 | 
[V:4] D2B,4A,G,F,2G,2 | 
[V:1] z2d3cABc3B | 
[V:2] f8g4 | 
[V:3] d8e3d | 
[V:4] D,8C,4 | 
[V:1] c2d4c3=B=B2 | 
[V:2] a2b3agfg4 | 
[V:3] e2f3ee2d4 | 
[V:4] C,2B,,4C,2G,4 | 
[V:1] c12 | 
[V:2] e2a2g2a4gf | 
[V:3] c12- | 
[V:4] C,2F,2C,2F,3G,A,B, | 
[V:1] z4z4c4 | 
[V:2] e2a4g4^f2 | 
[V:3] c12 | 
[V:4] C2F,4G,2A,4 | 
[V:1] B4A2B4AG | 
[V:2] g4z4G4 | 
[V:3] d12- | 
[V:4] G,4z2G,4F,E, | 
[V:1] F2B2c2d3_ef2 | 
[V:2] A2B2A2F2B4 | 
[V:3] d12 | 
[V:4] D,2G,2F,E,D,C,B,,4 | 
[V:1] _e6d2c4 | 
[V:2] G8g4- | 
[V:3] c4_e8 | 
[V:4] C,12 | 
[V:1] B2d3cd2B4 | 
[V:2] g12 | 
[V:3] d12 | 
[V:4] G,12 | 
[V:1] A2d3cBAB2AG | 
[V:2] f8g4 | 
[V:3] d12- | 
[V:4] D,8G,4 | 
[V:1] F2d4c2A2B2 | 
[V:2] a2f4e2f2d2 | 
[V:3] d12 | 
[V:4] D,4z4D,4 | 
[V:1] c3BAGG4^F2 | 
[V:2] c6B2A4 | 
[V:3] z12 | 
[V:4] A,3F,F,2G,2D,4 | 
[V:1] G8z2B2- | 
[V:2] G8z4 | 
[V:3] G12 | 
[V:4] z2B,3G,B,CD2G,2 | 
[V:1] BGBcd2G2z2A2- | 
[V:2] z2B3GBcd2A2 | 
[V:3] d12 | 
[V:4] z2G,4G,2D,2F,2- | 
[V:1] AFABc2F2G4 | 
[V:2] A8G4 | 
[V:3] d4_e2d4c2 | 
[V:4] F,D,F,G,C,2D,2_E,4 | 
[V:1] F8A4- | 
[V:2] A4A2F4f2- | 
[V:3] d12 | 
[V:4] D,8D,4 | 
[V:1] A4c8 | 
[V:2] f2edc2f2e2f2- | 
[V:3] c12 | 
[V:4] F,6E,D,C,2F,2 | 
[V:1] d4d2B3AFG | 
[V:2] f2d2d8 | 
[V:3] B12 | 
[V:4] B,,2B,3A,G,3F,D,E, | 
[V:1] ABc4B2A4 | 
[V:2] c4f8 | 
[V:3] A8z4 | 
[V:4] F,4F,4F,4 | 
[V:1] G4G2A3Bc2- | 
[V:2] e4e2f4g2- | 
[V:3] c12 | 
[V:4] C,4C,2F,3E,C,2 | 
[V:1] c2B4A2B2G2 | 
[V:2] g2g3fd2z2d2 | 
[V:3] d8d4 | 
[V:4] G,6F,2G,2B,2 | 
[V:1] A4z2d3Bc2 | 
[V:2] e2A2A8 | 
[V:3] c4z2f3ge2 | 
[V:4] A,2F,4E,D,A,4 | 
[V:1] d6c2B2A2 | 
[V:2] z4z4z2A2- | 
[V:3] d2B3cA2G2d2- | 
[V:4] D,2G,3E,F,2G,2D,2 | 
[V:1] G4F4z2G2 | 
[V:2] ABG2A2d3Bc2 | 
[V:3] d_ec2d2A3BG2 | 
[V:4] _E,4D,2F,3G,E,2 | 
[V:1] F4F2A3BG2 | 
[V:2] d4z2d2-dBc2 | 
[V:3] A8z2G2 | 
[V:4] D,4D,2F,3G,E,2 | 
[V:1] F4F2G2F2B2- | 
[V:2] d2A2-ABG2A2B2 | 
[V:3] A2d3_ec2d2G2 | 
[V:4] D,2F,3G,E,2D,2G,2- | 
[V:1] BAG4^F2G4 ||  
[V:2] d2_e2d4d4 ||  
[V:3] B3cA4G4 ||  
[V:4] G,2C,2D,4G,4 ||  
[V:1]  [K:F] [K:clef=treble][M:2/1]z8 | 
[V:2]  [K:F] [K:clef=treble-8][M:2/1]d4d2f2- | 
[V:3]  [K:F] [K:clef=treble-8][M:2/1]z8 | 
[V:4]  [K:F] [K:clef=bass][M:2/1]D,8 | 
[V:1] z8 | 
[V:2] f2ede2A2 | 
[V:3] z8 | 
[V:4] A,8 | 
[V:1] z8 | 
[V:2] c3de2f2 | 
[V:3] z8 | 
[V:4] A,8 | 
[V:1] G4G2B2- | 
[V:2] g3fd4 | 
[V:3] G8 | 
[V:4] z8 | 
[V:1] B2AGA2D2 | 
[V:2] z8 | 
[V:3] d8 | 
[V:4] z8 | 
[V:1] F3GA2B2 | 
[V:2] z8 | 
[V:3] d8 | 
[V:4] z8 | 
[V:1] c8- | 
[V:2] e4e2f2- | 
[V:3] z8 | 
[V:4] A,8- | 
[V:1] c8 | 
[V:2] fec3def | 
[V:3] z8 | 
[V:4] A,8 | 
[V:1] z8 | 
[V:2] d3ef2g2- | 
[V:3] z8 | 
[V:4] B,8 | 
[V:1] A8 | 
[V:2] g2^fe^f4 | 
[V:3] z8 | 
[V:4] A,8 | 
[V:1] B8- | 
[V:2] g4z2G2 | 
[V:3] d8- | 
[V:4] G,8 | 
[V:1] B8 | 
[V:2] B3cd2e2 | 
[V:3] d8- | 
[V:4] G,8 | 
[V:1] A8 | 
[V:2] f2g4^f2 | 
[V:3] d8 | 
[V:4] z8 | 
[V:1] G4z2C2 | 
[V:2] g8 | 
[V:3] e8- | 
[V:4] z8 | 
[V:1] E3FG2A2 | 
[V:2] c8 | 
[V:3] e8 | 
[V:4] z8 | 
[V:1] B2c3=B=B2 | 
[V:2] z8 | 
[V:3] d8 | 
[V:4] z8 | 
[V:1] c8 | 
[V:2] e8 | 
[V:3] c8 | 
[V:4] A,8- | 
[V:1] c4c4 | 
[V:2] e4f4 | 
[V:3] z8 | 
[V:4] A,8 | 
[V:1] B6AG | 
[V:2] g6fe | 
[V:3] d8- | 
[V:4] G,8 | 
[V:1] F4G4 | 
[V:2] d4G4 | 
[V:3] d8 | 
[V:4] B,8 | 
[V:1] A8 | 
[V:2] c3de2f2 | 
[V:3] c8 | 
[V:4] A,4A,4 | 
[V:1] G8 | 
[V:2] g4G4- | 
[V:3] e8 | 
[V:4] z8 | 
[V:1] B8 | 
[V:2] G4G4 | 
[V:3] d4d4 | 
[V:4] z8 | 
[V:1] A4A4- | 
[V:2] d6cB | 
[V:3] z8 | 
[V:4] D,8 | 
[V:1] A2GFE4 | 
[V:2] c2d4^c2 | 
[V:3] z8 | 
[V:4] A,4A,4 | 
[V:1] D4d4 | 
[V:2] d3ef2g2- | 
[V:3] z8 | 
[V:4] B,6A,G, | 
[V:1] c4B4- | 
[V:2] g2f2g2fe | 
[V:3] z8 | 
[V:4] A,4G,4- | 
[V:1] B4G4 | 
[V:2] d4e4 | 
[V:3] G8 | 
[V:4] G,4E,4 | 
[V:1] A4F4 | 
[V:2] A6GF | 
[V:3] d4d4 | 
[V:4] F,6E,D, | 
[V:1] G8 | 
[V:2] c8 | 
[V:3] e6dc | 
[V:4] C,8 | 
[V:1] F2A3Bc2 | 
[V:2] z2F3GA2 | 
[V:3] d4c4- | 
[V:4] z8 | 
[V:1] A2c3BA2- | 
[V:2] F2A3Bc2 | 
[V:3] c4A4 | 
[V:4] z8 | 
[V:1] A2GFG4 | 
[V:2] d8 | 
[V:3] B8 | 
[V:4] G,8 | 
[V:1] A4A2c2- | 
[V:2] f6ed | 
[V:3] A8 | 
[V:4] D,4F,4- | 
[V:1] c2c2B4 | 
[V:2] c2f4e2 | 
[V:3] z8 | 
[V:4] F,2A,2G,4 | 
[V:1] A8- | 
[V:2] f8- | 
[V:3] c8- | 
[V:4] F,8- | 
[V:1] A8 | 
[V:2] f8 | 
[V:3] c8 | 
[V:4] F,8 | 
[V:1] G8- | 
[V:2] _e6dc | 
[V:3] c8 | 
[V:4] C,8 | 
[V:1] G8 | 
[V:2] B8 | 
[V:3] d8- | 
[V:4] G,8 | 
[V:1] F8 | 
[V:2] A8- | 
[V:3] d8 | 
[V:4] D,8 | 
[V:1] E8- | 
[V:2] A8 | 
[V:3] c8 | 
[V:4] z4A,4 | 
[V:1] E8 | 
[V:2] z4A4 | 
[V:3] z8 | 
[V:4] G,2A,3B,C2 | 
[V:1] z8 | 
[V:2] G2A3Bc2 | 
[V:3] z8 | 
[V:4] B,2C2A,4 | 
[V:1] z8 | 
[V:2] B2c2A2B2- | 
[V:3] z8 | 
[V:4] G,2A,2F,2G,2- | 
[V:1] z8 | 
[V:2] BGg4^f2 | 
[V:3] z4c4 | 
[V:4] G,A,B,CA,4 | 
[V:1] B8- | 
[V:2] g8 | 
[V:3] d8- | 
[V:4] G,8 | 
[V:1] B8 | 
[V:2] f8- | 
[V:3] d8 | 
[V:4] B,8 | 
[V:1] A8- | 
[V:2] f8- | 
[V:3] c8- | 
[V:4] F,8- | 
[V:1] A8 | 
[V:2] f8 | 
[V:3] c8- | 
[V:4] F,8 | 
[V:1] G8- | 
[V:2] e8 | 
[V:3] c8 | 
[V:4] C,8 | 
[V:1] G8 | 
[V:2] c8 | 
[V:3] G8 | 
[V:4] E,8 | 
[V:1] F8 | 
[V:2] d8 | 
[V:3] A8- | 
[V:4] D,4D,4 | 
[V:1] z4F4 | 
[V:2] z4d4 | 
[V:3] A8 | 
[V:4] z4D,4 | 
[V:1] F4G2A2- | 
[V:2] c4cBAG | 
[V:3] z8 | 
[V:4] F,4E,2F,2- | 
[V:1] A2B2c4 | 
[V:2] F2f4e2 | 
[V:3] z4A4 | 
[V:4] F,2E,D,C,4 | 
[V:1] d3cc2A2 | 
[V:2] d2cBA4 | 
[V:3] B4c2d2- | 
[V:4] B,,4F,4 | 
[V:1] B4A4 | 
[V:2] z4d4 | 
[V:3] d2e2f4 | 
[V:4] G,4D,4 | 
[V:1] G4B4- | 
[V:2] B6c2 | 
[V:3] g8 | 
[V:4] _E,8 | 
[V:1] B2AGF4 | 
[V:2] d8- | 
[V:3] f8 | 
[V:4] B,,8- | 
[V:1] z4B4 | 
[V:2] d8 | 
[V:3] z4F4 | 
[V:4] B,,8 | 
[V:1] G2c4BA | 
[V:2] z8 | 
[V:3] G2A4B2 | 
[V:4] z8 | 
[V:1] G4F4 | 
[V:2] z4A4 | 
[V:3] c4d4 | 
[V:4] z4D,4 | 
[V:1] G2A4B2 | 
[V:2] G2c4B2 | 
[V:3] z2c2d4 | 
[V:4] E,2F,4G,2 | 
[V:1] c4F2B2- | 
[V:2] A2F2f4- | 
[V:3] z2c2d4 | 
[V:4] A,4B,4 | 
[V:1] B2A2B2G2- | 
[V:2] f2edd4 | 
[V:3] c4B4 | 
[V:4] F,4G,4 | 
[V:1] G2^FEF4 | 
[V:2] d6cB | 
[V:3] A8 | 
[V:4] D,8 | 
[V:1] G8 |]  
[V:2] B8 |]  
[V:3] G8 |]  
[V:4] G,8 |]  



